X: 56
T:Cliffs of Moher, The
M:6/8
L:1/8
R:jig
K:ADor
a3  bag|eaf ged|c2 A BAG|EFG Ace|aga bag|eaf ged|cBA BAG|EAA A3  :|
|:efe dBA|efe dBA|GAB dBA|GAB dBd|1efe dBA|efe dBA |EGA BAG|EAA A3  :|
2efe ded|cdc BcB|EGA BAG|EDB, A,3  ||
